X:27
T:Skogsnerten
R:reinlender
C:Sven Nyhus
H:
N:p.28
B:Fra Bergrosa til Trollsteget
O:Norge - Norvge - Norway
Z:<anamnese@laposte.net> -- http://anamnese.fr.st
M:C|2
L:1/8
Q:1/4=110
K:C
ue>vd |: "Am" e2 (e>d) e2 (e>d) | "Am" e2 A2 A>(Ace) |"Am"{ag}a3 g "D"~^f2 ed |\
 "D" (^f^gf) e2 "Am" e2 a>=g | "F" a2 (a>g) a2 (a>g) |"Dm"{ag}a3 f d2 (fa) |
"C"(gag) ec "G7"~B2 GB |1 "C"(dedc2) c2 e>d :|2 "C"(dedc2) c2 "Am"Ac |: % /.../
